X: 213
T:Mairi's Wedding
G:dance song
M:4/4
L:1/8
Q:1/4=120
K:G
D>DDE GAB2|AGEG BAB2 |
D>DDE GAB2|AGEC D2D2||
d>dde dcB2|AGEG BAB2 |
d>dde dcB2|AGEC D2D2|]

This ancient Shetland ballad tune is mixolydian/minor/dorian hexatonic
and ends on the fifth:

